web/app/themes/ilsfa/assets/svgs/icon-map-cluster.svg

<svg xmlns="http://www.w3.org/2000/svg" width="48" height="48" viewBox="0 0 48 48"><path fill="#E04E22" d="M48 2v32a2 2 0 0 1-2 2H33.236c-.757 0-1.45.428-1.789 1.105l-4.552 9.106a3.235 3.235 0 0 1-5.79 0l-4.552-9.106A2.002 2.002 0 0 0 14.764 36H2a2 2 0 0 1-2-2V2a2 2 0 0 1 2-2h44a2 2 0 0 1 2 2"/></svg>

<svg xmlns="http://www.w3.org/2000/svg" width="48" height="48" viewBox="0 0 48 48">
  <path fill="#E04E22" d="M48,2 L48,34 C48,35.104 47.104,36 46,36 L33.236,36 C32.479,36 31.786,36.428 31.447,37.105 L26.895,46.211 C26.347,47.308 25.226,48 24,48 C22.774,48 21.653,47.308 21.105,46.211 L16.553,37.105 C16.214,36.428 15.521,36 14.764,36 L2,36 C0.896,36 0,35.104 0,34 L0,2 C0,0.896 0.896,0 2,0 L46,0 C47.104,0 48,0.896 48,2"/>
</svg>
